X:1
T:Untitled by Pleyell EHo.112
C:Pleyell
L:1/8
Q:1/4=110
M:3/4
I:linebreak $
K:C
V:1 treble 
V:1
 (e3 f/g/) fe |{e} d2 d2 d2 | g2 (3gag (3fed |{d} c2 c2 c2 | d2 d2 d2 | dcBcd^d | ea g2 ^f2 | %7
 (a4 g2) ::$ e2 (3gag (3fed | ^c2 (3a_ba (3gfe | f2 (3fgf (3edc | B2 (3gag (3fed | e2 (e2 f2) | %13
{e} dcdef^f | g>c' e2 d2 |$ c6 :| %16
